X:1
T:Jesus, Savior, Pilot Me
T:John Edgar Gould
T:Jesus, Savior, Pilot Me
T:Public Domain
T:Public Domain
C:John Edgar Gould
Z:Public Domain
%%score ( 1 2 ) ( 3 4 )
L:1/8
M:3/4
K:Bb
V:1 treble 
V:2 treble 
V:3 bass 
V:4 bass 
V:1
 [Fd]>[Ec] | [DB]3 [DA] (3(cB)[EG] | [DF]4 [Fe]>[Fd] | [Gd]3 [Gc] [FB][EA] | [DB]4 [Ec]>[Ec] | %5
w: 1.~Je- sus,|Sav- ior, pi- * lot|o- ver life’s|tem- pest- uous sea;|Un- known waves|
w: 2.~While th’a-|pos- tles’ fra- * gile|strug- gled with|the bil- lows dark,|On the storm-|
w: 3.~Though the|sea be smooth * and|spark- ling with|the stars of night,|And my ship’s|
w: 4.~When the|dark- ling heav- * ens|and the wrath-|ful winds come down,|And the fierce|
w: 5.~As a|mo- ther stills * her|Thou canst hush|the o- cean wild;|Bois- terous waves|
w: 6.~When at|last I near * the|and the fear-|ful break- ers roar|’Twixt me and|
 [Ec]3 [EF] [EG][EF] | (DG F2) [Ec]>[Ec] | [Ec]3 [EF] [EG][EF] | (DE D2) [Fd]>[Ec] | %9
w: be- fore me roll,|hid- * * ing rock|treach- erous shoal. Chart|and * * com- pass|
w: y Ga- li- lee,|Thou * * didst walk|on the sea; And|when * * they be-|
w: path be a- blaze|with * * the light|hal- cyon days, Still|I * * know my|
w: waves, tossed on high,|lash * * them- selves|gainst the sky, Je-|sus, * * Sav- ior,|
w: o- bey Thy will,|when * * Thou sayest|them, “Be still!” Wond-|rous * * sov- ereign|
w: the peace- ful rest,|then, * * while lean-|on Thy breast, May|I * * hear Thee|
 [DB]3 [DA] (3(cB)G | [DF]4 [Fe]>[Fd] | [Gd]3 [Gc] [FB][EA] | [DB]4 |] %13
w: from Thee; Je- * sus,|ior, pi- lot|me. * * *||
w: Thy form, safe * they|ed through the|storm. * * *||
w: of Thee; Je- * sus,|ior, pi- lot|me. * * *||
w: lot me, o- * ver|tem- pest- uous|sea. * * *||
w: the sea, Je- * sus,|ior, pi- lot|me. * * *||
w: to me, “Fear * not,|will pi- lot|thee.” * * *||
V:2
 x2 | x4 E2 | x6 | x6 | x6 | x6 | B4 x2 | x6 | B4 x2 | x4 E2 | x6 | x6 | x4 |] %13
w: |me|||||and||come|Sav-||||
w: |bark|||||up-||held|glid-||||
w: |bright,|||||of||need|Sav-||||
w: |frown,|||||a-||pi-|life’s||||
w: |child,|||||to||of|Sav-||||
w: |shore,|||||ing||say|I||||
V:3
 [B,,F,]>[B,,F,] | [B,,F,]3 [B,,^F,] (3:2:2[B,,G,]2 [B,,B,] | [B,,B,]4 [C,A,]>[D,B,] | %3
 [E,B,]3 [E,E] [F,D][F,C] | [B,,B,]4 [F,A,]>[F,A,] | [F,A,]3 [F,A,] [F,B,][F,A,] | %6
 (B,E D2) [F,A,]>[F,A,] | [F,A,]3 [F,A,] [F,B,][F,A,] | (B,G, F,2) [B,,F,]>[B,,F,] | %9
 [B,,F,]3 [B,,^F,] (3:2:2[B,,G,]2 [B,,B,] | [B,,B,]4 [C,A,]>[D,B,] | [E,B,]3 [E,E] [F,D][F,C] | %12
 [B,,B,]4 |] %13
V:4
 x2 | x6 | x6 | x6 | x6 | x6 | B,,4 x2 | x6 | B,,4 x2 | x6 | x6 | x6 | x4 |] %13

